images/about2.svg

<svg width="40" height="40" viewBox="0 0 40 40" fill="none" xmlns="http://www.w3.org/2000/svg">
<circle cx="20" cy="20" r="20" fill="#F0F5FF"/>
<path d="M30 16.162V16.235C30 17.095 30 17.526 29.793 17.878C29.586 18.23 29.209 18.439 28.457 18.858L27.664 19.298C28.21 17.45 28.393 15.464 28.46 13.766L28.47 13.545L28.472 13.493C29.123 13.719 29.489 13.888 29.717 14.204C30 14.597 30 15.119 30 16.162ZM10 16.162V16.235C10 17.095 10 17.526 10.207 17.878C10.414 18.23 10.791 18.439 11.543 18.858L12.337 19.298C11.79 17.45 11.607 15.464 11.54 13.766L11.53 13.545L11.529 13.493C10.877 13.719 10.511 13.888 10.283 14.204C10 14.597 10 15.12 10 16.162Z" fill="#BDD0EA"/>
<path fill-rule="evenodd" clip-rule="evenodd" d="M24.3769 10.347C22.9301 10.11 21.466 9.99391 19.9999 9.99998C18.2169 9.99998 16.7469 10.157 15.6229 10.347C14.4839 10.539 13.9149 10.635 13.4389 11.221C12.9639 11.807 12.9889 12.44 13.0389 13.706C13.2119 18.054 14.1499 23.486 19.2499 23.966V27.5H17.8199C17.5888 27.5001 17.3649 27.5803 17.1862 27.7269C17.0076 27.8734 16.8852 28.0774 16.8399 28.304L16.6499 29.25H13.9999C13.801 29.25 13.6102 29.329 13.4696 29.4697C13.3289 29.6103 13.2499 29.8011 13.2499 30C13.2499 30.1989 13.3289 30.3897 13.4696 30.5303C13.6102 30.671 13.801 30.75 13.9999 30.75H25.9999C26.1988 30.75 26.3896 30.671 26.5302 30.5303C26.6709 30.3897 26.7499 30.1989 26.7499 30C26.7499 29.8011 26.6709 29.6103 26.5302 29.4697C26.3896 29.329 26.1988 29.25 25.9999 29.25H23.3499L23.1599 28.304C23.1146 28.0774 22.9922 27.8734 22.8135 27.7269C22.6349 27.5803 22.411 27.5001 22.1799 27.5H20.7499V23.966C25.8499 23.486 26.7889 18.055 26.9609 13.706C27.0109 12.44 27.0369 11.806 26.5609 11.221C26.0849 10.635 25.5159 10.539 24.3769 10.347Z" fill="#BDD0EA"/>
</svg>

<svg width="40" height="40" fill="none" xmlns="http://www.w3.org/2000/svg"><circle cx="20" cy="20" r="20" fill="#F0F5FF"/><path d="M30 16.162v.073c0 .86 0 1.291-.207 1.643-.207.352-.584.561-1.336.98l-.793.44c.546-1.848.729-3.834.796-5.532l.01-.221.002-.052c.651.226 1.017.395 1.245.711.283.393.283.915.283 1.958zm-20 0v.073c0 .86 0 1.291.207 1.643.207.352.584.561 1.336.98l.794.44c-.547-1.848-.73-3.834-.797-5.532l-.01-.221-.001-.052c-.652.226-1.018.395-1.246.711-.283.393-.283.916-.283 1.958z" fill="#BDD0EA"/><path fill-rule="evenodd" clip-rule="evenodd" d="M24.377 10.347A26.4 26.4 0 0020 10c-1.783 0-3.253.157-4.377.347-1.14.192-1.708.288-2.184.874-.475.586-.45 1.219-.4 2.485.173 4.348 1.11 9.78 6.21 10.26V27.5h-1.43a1 1 0 00-.98.804l-.19.946H14a.75.75 0 100 1.5h12a.75.75 0 100-1.5h-2.65l-.19-.946a1 1 0 00-.98-.804h-1.43v-3.534c5.1-.48 6.04-5.911 6.212-10.26.05-1.266.076-1.9-.4-2.485-.476-.586-1.045-.682-2.184-.874z" fill="#BDD0EA"/></svg>
